X:1
T:Iron Gate
M:C|
L:1/8
S:Darcie's TrTuneSbk Vo.2 (1998) p. 25
R:Hornpipe
Z:Ed Wosika
K:G
dc|: BG (3AGF EDB,D| GBAG AdcA| d^cde fd=cA| (3ded ce decd|
BG (3AGF EDB,D| GBAG AdcA| dgfe (3ded (3cBA| G2 B2 G2::
Bc| dgBg dgBd| gfaf gdBd| gfge dedc| ~B2 AF GDB,D| G2 ge dBGB|
cBcd eage| dgfg ecAF| GB (3AGF G2:|
